!!!COM: Vivaldi, Antonio
!!!OTL: Concerto a violino solo, No. 12
!!!XEN: Violin Concerto No. 12 in C major
!!!OPR: Il Cimento dell'armonia e dell'inventione
!!!XEN: The Contest of Harmony and Invention
!!!OPS: Opus 8
!!!ONM: No. 12
!!!OMV: Movement 3.
!!!YEC: Copyright 1996, Center for Computer Assisted Research in the Humanities
!!!YEM: Rights to all derivative electronic formats reserved.
!!!YEM: Refer to licensing agreement for important restrictions.
!!!OMD: Allegro
**kern	**kern	**kern	**kern	**kern	**Bnum
*Icello	*Iviola	*Ivioln	*Ivioln	*Ivioln	*Icemba
*Icemba	*	*	*	*	*
*ICstr	*ICstr	*ICstr	*ICstr	*ICstr	*ICklav
*ICklav	*	*	*	*	*
!cello	!viola	!violino 2	!violino 1	!violino principale	!continuo
!basso continuo	!	!	!	!	!
*clefF4	*clefC3	*clefG2	*clefG2	*clefG2	*
*k[]	*k[]	*k[]	*k[]	*k[]	*k[]
*C:	*C:	*C:	*C:	*C:	*C:
*M4/4	*M4/4	*M4/4	*M4/4	*M4/4	*M4/4
*>Selfridge-Field[etc1,S88,etc2]	*>Selfridge-Field[etc1,S88,etc2]	*>Selfridge-Field[etc1,S88,etc2]	*>Selfridge-Field[etc1,S88,etc2]	*>Selfridge-Field[etc1,S88,etc2]	*>Selfridge-Field[etc1,S88,etc2]
*>Amsterdam[etc1,A88,etc2]	*>Amsterdam[etc1,A88,etc2]	*>Amsterdam[etc1,A88,etc2]	*>Amsterdam[etc1,A88,etc2]	*>Amsterdam[etc1,A88,etc2]	*>Amsterdam[etc1,A88,etc2]
*>etc1	*>etc1	*>etc1	*>etc1	*>etc1	*>etc1
=1-	=1-	=1-	=1-	=1-	=1-
4CC/	4.G/	4r	8r	8r	.
.	.	.	8cc/L	8cc/L	.
4C/	.	8r	8e/	8e/	.
.	8c\	8ee\	8cc/J	8cc/J	.
4D\	4A/	4.dd\	8f/L	8f/L	7
.	.	.	8cc/	8cc/	.
4GG/	4B/	.	8d/	8d/	7
.	.	16cc\LL	8f/J	8f/J	.
.	.	16b\JJ	.	.	.
=2	=2	=2	=2	=2	=2
4C/	4.G/	8cc/L	8e/L	8e/L	.
.	.	8c/J	8cc/	8cc/	.
4CC/	.	8r	8e/	8e/	.
.	8G/	8ee\	8cc/J	8cc/J	.
4FF/	4A/	4.dd\	8d/L	8d/L	6 5
.	.	.	8cc/	8cc/	.
4GG/	4G/	.	8G/	8G/	.
.	.	16ee\LL	8b/J	8b/J	.
.	.	16ff\JJ	.	.	.
=3	=3	=3	=3	=3	=3
4CC/	4.G/	8ee\L	4cc\	4cc\	.
.	.	8cc\	.	.	.
4C/	.	8e\	8r	8r	.
.	8c\	8cc\J	8ee\	8ee\	.
4D\	4A/	8f/L	4.dd\	4.dd\	7
.	.	8cc/	.	.	.
4GG/	4B/	8d/	.	.	7
.	.	8f/J	16cc\LL	16cc\LL	.
.	.	.	16b\JJ	16b\JJ	.
=4	=4	=4	=4	=4	=4
4C/	4.G/	8e/L	8cc/L	8cc/L	.
.	.	8cc/	8c/J	8c/J	.
4CC/	.	8e/	8r	8r	.
.	8G/	8cc/J	8ee\	8ee\	.
4FF/	4A/	8d/L	4.dd\	4.dd\	6 5
.	.	8cc/	.	.	.
4GG/	4G/	8G/	.	.	.
.	.	8b/J	16ee\LL	16ee\LL	.
.	.	.	16ff\JJ	16ff\JJ	.
=5	=5	=5	=5	=5	=5
8C\L	4G/	4cc\	8ee\L	8ee\L	.
8D\	.	.	8gg\	8gg\	.
8E\	8g\L	4r	8gg\	8gg\	6
8C\J	8e\J	.	8gg\J	8gg\J	.
4D\	4A/	2r	8gg\L	8gg\L	.
.	.	.	16ff\L	16ff\L	.
.	.	.	16ee\JJ	16ee\JJ	.
4GG/	4B/	.	8ff\L	8ff\L	.
.	.	.	8ff\J	8ff\J	.
=6	=6	=6	=6	=6	=6
8C\L	4G/	8r	8ee\L	8ee\L	.
8D\	.	8gg\L	8ee\	8ee\	.
8E\	8g\L	8gg\	8ee\	8ee\	6
8C\J	8e\J	8gg\J	8ee\J	8ee\J	.
4D\	4A/	8gg\L	8ee\L	8ee\L	.
.	.	16ff\L	16dd\L	16dd\L	.
.	.	16ee\JJ	16cc\JJ	16cc\JJ	.
4GG/	4B/	8ff\L	8dd\L	8dd\L	7
.	.	8ff\J	8dd\J	8dd\J	.
=7	=7	=7	=7	=7	=7
8C/L	4.G/	8ee\L	8cc\L	8cc\L	.
16C/L	.	16cc\L	8ccc\	8ccc\	.
16BB/JJ	.	16dd\JJ	.	.	.
8C/L	.	8ee\L	8gg\	8gg\	.
8C/J	8e\	[8gg\J	8ccc\J	8ccc\J	.
4C/	4e\	8gg\]	8ee\L	8ee\L	.
.	.	4ee\	8ccc\	8ccc\	.
8r	4g\	.	8cc\	8cc\	.
8C/	.	16dd\LL	8ee\J	8ee\J	.
.	.	16cc\JJ	.	.	.
=8	=8	=8	=8	=8	=8
8GG\L	4.g\	8b\L	8dd\L	8dd\L	.
16G\L	.	8gg\	16g\L	16g\L	.
16F\JJ	.	.	16a\JJ	16a\JJ	.
8G\L	.	8dd\	8b\L	8b\L	.
8G\J	8g\	8gg\J	[8dd\J	[8dd\J	.
4G\	4g\	8b\L	8dd\]	8dd\]	.
.	.	8gg\	4b\	4b\	.
8r	4g\	8g\	.	.	.
8G\	.	8gg\J	16cc\LL	16cc\LL	.
.	.	.	16dd\JJ	16dd\JJ	.
=9	=9	=9	=9	=9	=9
8C/L	4.g\	8ee\L	8cc\L	8cc\L	.
16C/L	.	16cc\L	8ccc\	8ccc\	.
16BB/JJ	.	16dd\JJ	.	.	.
8C/L	.	8ee\L	8gg\	8gg\	.
8C/J	8e\	[8gg\J	8ccc\J	8ccc\J	.
4C/	4e\	8gg\]	8ee\L	8ee\L	.
.	.	4ee\	8ccc\	8ccc\	.
8r	4g\	.	8cc\	8cc\	.
8C/	.	16dd\LL	8ee\J	8ee\J	.
.	.	16cc\JJ	.	.	.
=10	=10	=10	=10	=10	=10
8GG\L	4.g\	8b\L	8dd\L	8dd\L	.
16G\L	.	8gg\	16g\L	16g\L	.
16F\JJ	.	.	16a\JJ	16a\JJ	.
8G\L	.	8dd\	8b\L	8b\L	.
8G\J	8g\	8gg\J	[8dd\J	[8dd\J	.
4G\	4g\	8b\L	8dd\]	8dd\]	.
.	.	8gg\	4b\	4b\	.
8r	4g\	8g\	.	.	.
8G\	.	8gg\J	16cc\LL	16cc\LL	.
.	.	.	16dd\JJ	16dd\JJ	.
=11	=11	=11	=11	=11	=11
4C/	4g\	8ee\L	8cc\L	8cc\L	.
.	.	8cc\	8ee\	8ee\	.
4E\	4e\	8g\	8cc\	8cc\	6
.	.	8cc\J	8ee\J	8ee\J	.
*	*	*strophe	*	*	*
*	*	*^	*	*	*
*	*	*S/S	*S/A	*	*	*
4E\	4c\	8e/L	8f/L	8g\L	8g\L	.
.	.	8cc/	8cc/	8ee\	8ee\	.
*	*	*S/fin	*S/fin	*	*	*
*	*	*v	*v	*	*	*
*	*	*S-	*	*	*
4E\	4e\	8g/	8cc\	8cc\	.
.	.	8cc/J	8ee\J	8ee\J	.
=12	=12	=12	=12	=12	=12
4F\	4c\	8f/L	8a\L	8a\L	.
.	.	8cc/	8ff\	8ff\	.
4F\	4f\	8a/	8cc\	8cc\	.
.	.	8cc/J	8ff\J	8ff\J	.
4F\	4c\	8f/L	8a\L	8a\L	.
.	.	8cc/	8ff\	8ff\	.
4F\	4f\	8a/	8cc\	8cc\	.
.	.	8cc/J	8ff\J	8ff\J	.
=13	=13	=13	=13	=13	=13
4F#\	4d\	8f#\L	8a\L	8a\L	6 5
.	.	8dd\	8ff#\	8ff#\	.
4F#\	4f#\	8a\	8dd\	8dd\	.
.	.	8dd\J	8ff#\J	8ff#\J	.
4F#\	4d\	8f#\L	8a\L	8a\L	.
.	.	8dd\	8ff#\	8ff#\	.
4F#\	4f#\	8a\	8dd\	8dd\	.
.	.	8dd\J	8ff#\J	8ff#\J	.
=14	=14	=14	=14	=14	=14
4G\	4d\	8g\L	8b\L	8b\L	.
.	.	8dd\	8gg\	8gg\	.
4G\	4g\	8b\	8dd\	8dd\	.
.	.	8dd\J	8gg\J	8gg\J	.
4G\	4d\	8g\L	8b\L	8b\L	.
.	.	8dd\	8gg\	8gg\	.
4G\	4g\	8b\	8dd\	8dd\	.
.	.	8dd\J	8gg\J	8gg\J	.
=15	=15	=15	=15	=15	=15
4G#\	4e\	8g#\L	8b\L	8b\L	6 5
.	.	8ee\	8gg#\	8gg#\	.
4G#\	4g#\	8b\	8ee\	8ee\	.
.	.	8ee\J	8gg#\J	8gg#\J	.
4G#\	4e\	8g#\L	8b\L	8b\L	.
.	.	8ee\	8gg#\	8gg#\	.
4G#\	4g#\	8b\	8ee\	8ee\	.
.	.	8ee\J	8gg#\J	8gg#\J	.
=16	=16	=16	=16	=16	=16
4A\	4e\	8a\L	8cc\L	8cc\L	.
.	.	8ee\	8aa\	8aa\	.
4A\	4a\	8cc\	8ee\	8ee\	.
.	.	8ee\J	8aa\J	8aa\J	.
4A\	4e\	8a\L	8cc\L	8cc\L	.
.	.	8ee\	8aa\	8aa\	.
4A\	4a\	8cc\	8ee\	8ee\	.
.	.	8ee\J	8aa\J	8aa\J	.
=17	=17	=17	=17	=17	=17
4A\	4f\	8a\L	8cc\L	8cc\L	6
.	.	8ff\	8aa\	8aa\	.
4A\	4a\	8cc\	8ff\	8ff\	.
.	.	8ff\J	8aa\J	8aa\J	.
4A\	4f\	8a\L	8cc\L	8cc\L	.
.	.	8ff\	8aa\	8aa\	.
*	*	*	*	*strophe	*
*	*	*	*	*^	*
*	*	*	*	*S/S	*S/A	*
4A\	4a\	8cc\	8ff\	8ff\	8ee\	.
.	.	8ff\J	8aa\J	8aa\J	8aa\J	.
*	*	*	*	*S/fin	*S/fin	*
*	*	*	*	*v	*v	*
*	*	*	*	*S-	*
=18	=18	=18	=18	=18	=18
4G\	4d\	8g/L	8b\L	8b\L	.
.	.	16g/L	16b\L	16b\L	.
.	.	16a/JJ	16cc\JJ	16cc\JJ	.
8r	8r	8b\L	8dd\L	8dd\L	.
16G\LL	16B/LL	[8b\J	[8dd\J	[8dd\J	.
16F\JJ	16A/JJ	.	.	.	.
8G/L	8B\L	8b/L]	8dd\L]	8dd\L]	.
8GG/J	8d\J	16g/L	16b\L	16b\L	.
.	.	16a/JJ	16cc\JJ	16cc\JJ	.
8r	8r	8b\L	8dd\L	8dd\L	.
16G\LL	16B/LL	[8b\J	[8dd\J	[8dd\J	.
16F\JJ	16A/JJ	.	.	.	.
=19	=19	=19	=19	=19	=19
8G/L	8B\L	8b\L]	8dd\L]	8dd\L]	.
8GG/J	8d\J	16b\L	16dd\L	16dd\L	.
.	.	16cc\JJ	16ee\JJ	16ee\JJ	.
8r	8r	8dd\L	8ff\L	8ff\L	.
16G\LL	16B/LL	[8dd\J	[8ff\J	[8ff\J	.
16F\JJ	16A/JJ	.	.	.	.
8G/L	8B\L	8dd\L]	8ff\L]	8ff\L]	.
8GG/J	8d\J	16b\L	16dd\L	16dd\L	.
.	.	16cc\JJ	16ee\JJ	16ee\JJ	.
8r	8r	8dd\L	8ff\L	8ff\L	.
8GG/	8B/	8dd\J	8ff\J	8ff\J	.
=20	=20	=20	=20	=20	=20
4C/	4G/	8cc\L	8ee\L	8ee\L	.
.	.	8gg\	8ccc\	8ccc\	.
4C/	4g\	8cc\	8ee\	8ee\	.
.	.	8gg\J	8ccc\J	8ccc\J	.
4G\	4g\	8cc\L	8dd\L	8dd\L	5 4
.	.	8gg\	8ccc\	8ccc\	.
4GG/	4g\	8b\	8dd\	8dd\	3
.	.	8gg\J	8bb\J	8bb\J	.
=21	=21	=21	=21	=21	=21
4C/	4g\	4ee\	4ccc\	4ccc\	.
4r	4r	4r	4r	4r	.
8C\L	2r	2r	2r	(16ee\LL	.
.	.	.	.	16ff\J	.
8c\	.	.	.	8gg\J)	.
8B\	.	.	.	(16dd\LL	6 5
.	.	.	.	16ee\J	.
8BB\J	.	.	.	8ff\J)	.
=22	=22	=22	=22	=22	=22
8C\L	1r	1r	1r	(8ee\L	.
8D\	.	.	.	8dd\J	.
8E\	.	.	.	4cc\)	6
8D\J	.	.	.	.	.
8C\L	.	.	.	(16ee\LL	.
.	.	.	.	16ff\J	.
8c\	.	.	.	8gg\J)	.
8B\	.	.	.	(16dd\LL	6 5
.	.	.	.	16ee\J	.
8BB\J	.	.	.	8ff\J)	.
=23	=23	=23	=23	=23	=23
8C\L	1r	1r	1r	(8ee\L	.
8D\	.	.	.	8dd\J	.
8E\	.	.	.	4cc\)	6
8D\J	.	.	.	.	.
8C\L	.	.	.	(16ee\LL	.
.	.	.	.	16ff\J	.
8c\	.	.	.	8gg\J)	.
8c\	.	.	.	(16cc\LL	.
.	.	.	.	16dd\J	.
8C\J	.	.	.	8ee\J)	.
=24	=24	=24	=24	=24	=24
8G\L	1r	1r	1r	4dd\	.
8A\	.	.	.	.	.
8B\	.	.	.	8r	6
8G\J	.	.	.	8gg\	.
8C\L	.	.	.	16ee\LL	.
.	.	.	.	16ff\	.
8D\	.	.	.	16gg\	.
.	.	.	.	16ee\JJ	.
8E\	.	.	.	16cc\LL	6
.	.	.	.	16dd\	.
8C\J	.	.	.	16ee\	.
.	.	.	.	16cc\JJ	.
=25	=25	=25	=25	=25	=25
8F\L	1r	1r	1r	16a/LL	.
.	.	.	.	16b/	.
8G\	.	.	.	16cc/	.
.	.	.	.	16a/JJ	.
8A\	.	.	.	8f\L	6
8F\J	.	.	.	8aa\J	.
8D\L	.	.	.	16ff\LL	.
.	.	.	.	16gg\	.
8E\	.	.	.	16aa\	.
.	.	.	.	16ff\JJ	.
8F\	.	.	.	16dd\LL	6
.	.	.	.	16ee\	.
8D\J	.	.	.	16ff\	.
.	.	.	.	16dd\JJ	.
=26	=26	=26	=26	=26	=26
8G\L	1r	1r	1r	16b\LL	.
.	.	.	.	16cc\	.
8A\	.	.	.	16dd\	.
.	.	.	.	16b\JJ	.
8B\	.	.	.	8g\L	6
8G\J	.	.	.	8bb\J	.
8E\L	.	.	.	16gg\LL	.
.	.	.	.	16aa\	.
8F\	.	.	.	16bb\	.
.	.	.	.	16gg\JJ	.
8G\	.	.	.	16ee\LL	6
.	.	.	.	16ff\	.
8E\J	.	.	.	16gg\	.
.	.	.	.	16ee\JJ	.
=27	=27	=27	=27	=27	=27
8A\L	1r	1r	1r	16cc\LL	.
.	.	.	.	16dd\	.
8B\	.	.	.	16ee\	.
.	.	.	.	16cc\JJ	.
8c\	.	.	.	8a\L	6
8A\J	.	.	.	8aa\J	.
8D\L	.	.	.	8ff#\L	#
8d\	.	.	.	8aa\J	.
8A\	.	.	.	8ccT\L	.
8F#\J	.	.	.	16b\L	6 5
.	.	.	.	16a\JJ	.
=28	=28	=28	=28	=28	=28
4GG/	1r	1r	1r	8b\L	.
.	.	.	.	8gg\J	.
8r	.	.	.	8bt/L	.
!!  Placement of this trill and the next two corrected by analogy with m27 and m31.
8G\	.	.	.	16a/L	.
.	.	.	.	16g/JJ	.
4F#\	.	.	.	8a\L	6
.	.	.	.	8ff#\J	.
8r	.	.	.	8aT/L	.
8D\	.	.	.	16g/L	.
.	.	.	.	16f#/JJ	.
=29	=29	=29	=29	=29	=29
4E\	1r	1r	1r	8g\L	.
.	.	.	.	8ee\J	.
8r	.	.	.	8gT/L	.
8C/	.	.	.	16f#/L	.
.	.	.	.	16e/JJ	.
[2D\	.	.	.	16f#/LL	#
.	.	.	.	16a/	.
.	.	.	.	16g/	.
.	.	.	.	16b/JJ	.
.	.	.	.	16a\LL	.
.	.	.	.	16cc\	.
.	.	.	.	16b\	.
.	.	.	.	16dd\JJ	.
=30	=30	=30	=30	=30	=30
2D\]	1r	1r	1r	16cc\LL	#
.	.	.	.	16ee\	.
.	.	.	.	16dd\	.
.	.	.	.	16ff#\JJ	.
.	.	.	.	16ee\LL	.
.	.	.	.	16gg\	.
.	.	.	.	16ff#\	.
.	.	.	.	16aa\JJ	.
4G\	.	.	.	8gg\L	.
.	.	.	.	(16ff#\L	.
.	.	.	.	16gg\JJ)	.
4c\	.	.	.	(16aa\LL	6
.	.	.	.	16gg\)	.
.	.	.	.	(16ff#\	.
.	.	.	.	16ee\JJ)	.
=31	=31	=31	=31	=31	=31
4F#\	1r	1r	1r	(16dd\LL	6 5
.	.	.	.	16ee\)	.
.	.	.	.	(16ff#\	.
.	.	.	.	16ee\JJ)	.
8r	.	.	.	(16dd\LL	.
.	.	.	.	16cc\)	.
8F#\	.	.	.	(16b\	.
.	.	.	.	16a\JJ)	.
8G\L	.	.	.	8bt/L	.
8BB\	.	.	.	16a/L	.
.	.	.	.	16g/JJ	.
8C\	.	.	.	8aT/L	6
8D\J	.	.	.	16g/L	#
.	.	.	.	16f#/JJ	.
=32	=32	=32	=32	=32	=32
4GG/	4.d\	4r	8r	8g\L	.
.	.	.	8gg\L	8gg\	.
4G\	.	8r	8b\	8b\	.
.	8b\	8bb\	8gg\J	8gg\J	.
4A\	4e\	4.aa\	8cc\L	8cc\L	.
.	.	.	8gg\	8gg\	.
4D\	4f#\	.	8a\	8a\	#
.	.	16gg\LL	8cc\J	8cc\J	.
.	.	16ff#\JJ	.	.	.
=33	=33	=33	=33	=33	=33
4GG/	4.d\	8gg\L	8b\L	8b\L	.
.	.	8g\J	8gg\	8gg\	.
4G\	.	8r	8b\	8b\	.
.	8dd\	8bb\	8gg\J	8gg\J	.
4d\	4dd\	4.aa\	8a\L	8a\L	4
.	.	.	8gg\	8gg\	.
4D\	4dd\	.	8d\	8d\	#
.	.	16bb\LL	8ff#\J	8ff#\J	.
.	.	16ccc\JJ	.	.	.
=34	=34	=34	=34	=34	=34
4GG/	4.dd\	8bb\L	4gg\	4gg\	.
.	.	8gg\	.	.	.
4G\	.	8b\	8r	8r	.
.	8dd\	8gg\J	8bb\	8bb\	.
4A\	4e\	8cc\L	4.aa\	4.aa\	.
.	.	8gg\	.	.	.
4D\	4f#\	8a\	.	.	#
.	.	8cc\J	16gg\LL	16gg\LL	.
.	.	.	16ff#\JJ	16ff#\JJ	.
=35	=35	=35	=35	=35	=35
4GG/	4d\	8b\L	8gg\L	8gg\L	.
.	.	8gg\	8g\J	8g\J	.
4G\	8r	8b\	8r	8r	.
.	8d\	8gg\J	8bb\	8bb\	.
4d\	4d\	8a\L	4.aa\	4.aa\	4
.	.	8gg\	.	.	.
4D\	4d\	8d\	.	.	#
.	.	8ff#\J	16bb\LL	16bb\LL	.
.	.	.	16ccc\JJ	16ccc\JJ	.
=36	=36	=36	=36	=36	=36
8G\L	4.d\	4gg\	8bb\L	8bb\L	.
8A\	.	.	8ddd\	8ddd\	.
8B\	.	4r	8ddd\	8ddd\	6
8G\J	8b\	.	8ddd\J	8ddd\J	.
4d\	4.a\	2r	8ddd\L	8ddd\L	4
.	.	.	16ccc\L	16ccc\L	.
.	.	.	16bb\JJ	16bb\JJ	.
4D\	.	.	8ccc\L	8ccc\L	#
.	8f#\	.	8ccc\J	8ccc\J	.
=37	=37	=37	=37	=37	=37
8G\L	4.d\	8r	8bb\L	8bb\L	.
8A\	.	8ddd\L	8bb\	8bb\	.
8B\	.	8ddd\	8bb\	8bb\	6
8G\J	8b\	8ddd\J	8bb\J	8bb\J	.
4d\	4.a\	8ddd\L	8bb\L	8bb\L	4
.	.	16ccc\L	16aa\L	16aa\L	.
.	.	16bb\JJ	16gg\JJ	16gg\JJ	.
4D\	.	8ccc\L	8aa\L	8aa\L	#
.	8f#\	8ccc\J	8aa\J	8aa\J	.
=38	=38	=38	=38	=38	=38
4G\	4d\	8bb\L	8gg\L	8gg\L	.
.	.	8gg\	8bb\	8bb\	.
4GG/	4d\	8dd\	8gg\	8gg\	.
.	.	8gg\J	8bb\J	8bb\J	.
4G\	4d\	8b\L	8dd\L	8dd\L	.
.	.	8gg\	8bb\	8bb\	.
4GG/	4d\	8dd\	8gg\	8gg\	.
.	.	8gg\J	8bb\J	8bb\J	.
=39	=39	=39	=39	=39	=39
4D\	4d\	8ff#\L	8aa\L	8aa\L	#
.	.	16dd\L	16ff#\L	16ff#\L	.
.	.	16ee\JJ	16gg\JJ	16gg\JJ	.
8r	8r	8ff#\L	8aa\L	8aa\L	.
16d\LL	16f#\LL	[8ff#\J	[8aa\J	[8aa\J	.
16c\JJ	16e\JJ	.	.	.	.
8d\L	8f#\L	8ff#\L]	8aa\L]	8aa\L]	#
8D\J	8a\J	16dd\L	16ff#\L	16ff#\L	.
.	.	16ee\JJ	16gg\JJ	16gg\JJ	.
8r	8r	8ff#\L	8aa\L	8aa\L	.
16d\LL	16f#\LL	[8ff#\J	[8aa\J	[8aa\J	.
16c\JJ	16e\JJ	.	.	.	.
=40	=40	=40	=40	=40	=40
8d\L	8f#\L	8ff#\L]	8aa\L]	8aa\L]	#
8D\J	8a\J	16ff#\L	16aa\L	16aa\L	.
.	.	16gg\JJ	16bb\JJ	16bb\JJ	.
8r	8r	8aa\L	8ccc\L	8ccc\L	.
16d\LL	16f#\LL	[8aa\J	[8ccc\J	8ccc\J	.
16c\JJ	16e\JJ	.	.	.	.
8d\L	8f#\L	8aa\L]	8ccc\L]	8ccc\L	#
8D\J	8a\J	16ff#\L	16aa\L	16aa\L	.
.	.	16gg\JJ	16bb\JJ	16bb\JJ	.
8r	8r	8aa\L	8ccc\L	8ccc\L	.
16d\LL	8f#\	8aa\J	8ccc\J	8ccc\J	.
16c\JJ	.	.	.	.	.
=41	=41	=41	=41	=41	=41
8d\L	4d\	8gg\L	8bb\L	8bb\L	#
8D\J	.	8dd\	8gg\	8gg\	.
8r	8r	8g\	8b\	8b\	.
16d\LL	8d\	8dd\J	8gg\J	8gg\J	.
16c\JJ	.	.	.	.	.
8d\L	4d\	8g\L	8a\L	8a\L	.
8D\	.	8dd\	8gg\	8gg\	.
8d\	4d\	8f#\	8a\	8a\	#
8D\J	.	8dd\J	8ff#\J	8ff#\J	.
=42	=42	=42	=42	=42	=42
8.GG/L	4d\	4b\	4gg\	16gg\LL	.
.	.	.	.	16dd\J	.
.	.	.	.	[8b\J	.
16G/Jk	.	.	.	.	.
[4GG/	4r	4r	4r	16b\LL]	.
.	.	.	.	16g\	.
.	.	.	.	16b\	.
.	.	.	.	16dd\JJ	.
*	*	*	*	*strophe	*
*	*	*	*	*^	*
*	*	*	*	*S/S	*S/A	*
8.GG/L]	2r	2r	2r	16gg\LL	8gg\LL	.
.	.	.	.	16dd\J	.	.
.	.	.	.	[8b\J	16dd\J	.
16G/Jk	.	.	.	.	[16b\J	.
*	*	*	*	*S/fin	*S/fin	*
*	*	*	*	*v	*v	*
*	*	*	*	*S-	*
[4GG/	.	.	.	16b\LL]	.
.	.	.	.	16g\	.
.	.	.	.	16b\	.
.	.	.	.	16dd\JJ	.
=43	=43	=43	=43	=43	=43
8.GG/L]	1r	1r	1r	8gg\L	.
.	.	.	.	16ff#\L	.
16G/Jk	.	.	.	16ee\JJ	.
4F#\	.	.	.	16dd\LL	6
.	.	.	.	16cc\	.
.	.	.	.	16b\	.
.	.	.	.	16a\JJ	.
8G\L	.	.	.	8b/L	.
8A\	.	.	.	8g/J	.
8B\	.	.	.	4r	.
8G#\J	.	.	.	.	6 5
=44	=44	=44	=44	=44	=44
8.AA/L	1r	1r	1r	16aa\LL	.
.	.	.	.	16ee\J	.
.	.	.	.	[8cc\J	.
16A/Jk	.	.	.	.	.
[4AA/	.	.	.	16cc\LL]	.
.	.	.	.	16a\	.
.	.	.	.	16cc\	.
.	.	.	.	16ee\JJ	.
8.AA/L]	.	.	.	16aa\LL	.
.	.	.	.	16ee\J	.
.	.	.	.	[8cc\J	.
16A/Jk	.	.	.	.	.
4AA/	.	.	.	16cc\LL]	.
.	.	.	.	16a\	.
.	.	.	.	16cc\	.
.	.	.	.	16ee\JJ	.
=45	=45	=45	=45	=45	=45
8.AA\L	1r	1r	1r	8aa\L	.
.	.	.	.	16gg\L	.
16A\Jk	.	.	.	16ff\JJ	.
4G#\	.	.	.	16ee\LL	6
.	.	.	.	16dd\	.
.	.	.	.	16cc\	.
.	.	.	.	16b\JJ	.
8A\L	.	.	.	8cc\L	.
8E\	.	.	.	8a\J	.
8C\	.	.	.	8r	6
8AA\J	.	.	.	8ee\	.
=46	=46	=46	=46	=46	=46
4D\	1r	1r	1r	16ff\LL	.
.	.	.	.	16aa\	.
.	.	.	.	16aa\	.
.	.	.	.	16ff\JJ	.
8r	.	.	.	16ff\LL	.
.	.	.	.	16dd\	.
8F#\	.	.	.	16dd\	6
.	.	.	.	16b\JJ	.
4G\	.	.	.	16b\LL	.
.	.	.	.	16dd\	.
.	.	.	.	16dd\	.
.	.	.	.	16b\JJ	.
8r	.	.	.	16b/LL	.
.	.	.	.	16g/	.
8BB/	.	.	.	16g/	.
.	.	.	.	16e/JJ	.
=47	=47	=47	=47	=47	=47
4C/	1r	1r	1r	16e\LL	.
.	.	.	.	16gg\	.
.	.	.	.	16gg\	.
.	.	.	.	16ee\JJ	.
8r	.	.	.	16ee\LL	.
.	.	.	.	16cc\	.
8E\	.	.	.	16cc\	6
.	.	.	.	16a\JJ	.
4F\	.	.	.	16a\LL	.
.	.	.	.	16cc\	.
.	.	.	.	16cc\	.
.	.	.	.	16a\JJ	.
8r	.	.	.	16a/LL	.
.	.	.	.	16f/	.
8AA/	.	.	.	16f/	.
.	.	.	.	16d/JJ	.
=48	=48	=48	=48	=48	=48
4BB/	1r	1r	1r	16d\LL	.
.	.	.	.	16ff\	.
.	.	.	.	16ff\	.
.	.	.	.	16dd\JJ	.
8r	.	.	.	16dd\LL	.
.	.	.	.	16b\	.
8D\	.	.	.	16b\	.
.	.	.	.	16g#\JJ	.
4E\	.	.	.	16g#\LL	.
.	.	.	.	16dd\	.
.	.	.	.	16dd\	.
.	.	.	.	16b\JJ	.
8r	.	.	.	16b/LL	.
.	.	.	.	16g#/	.
8D\	.	.	.	16g#/	.
.	.	.	.	16e/JJ	.
=49	=49	=49	=49	=49	=49
4C/	1r	1r	1r	16e\LL	.
.	.	.	.	16ee\	.
.	.	.	.	16ee\	.
.	.	.	.	16cc\JJ	.
4r	.	.	.	16cc/LL	.
.	.	.	.	16a/	.
.	.	.	.	16a/	.
.	.	.	.	16g#/JJ	.
4E\	.	.	.	16g#\LL	#
.	.	.	.	16ee\	.
.	.	.	.	16ee\	.
.	.	.	.	16b\JJ	.
8r	.	.	.	16b/LL	.
.	.	.	.	16g#/	.
8D\	.	.	.	16g#/	.
.	.	.	.	16a/JJ	.
=50	=50	=50	=50	=50	=50
4C/	1r	1r	1r	16a\LL	.
.	.	.	.	16ee\	.
.	.	.	.	16ee\	.
.	.	.	.	16cc\JJ	.
4r	.	.	.	16cc/LL	.
.	.	.	.	16a/	.
.	.	.	.	16a/	.
.	.	.	.	16g#/JJ	.
4E\	.	.	.	16g#\LL	#
.	.	.	.	16ee\	.
.	.	.	.	16ee\	.
.	.	.	.	16b\JJ	.
8r	.	.	.	16b/LL	.
.	.	.	.	16g#/	.
8D\	.	.	.	16g#/	.
.	.	.	.	16a/JJ	.
=51	=51	=51	=51	=51	=51
8AA/L	1r	1r	1r	4a/	.
8BB/	.	.	.	.	.
8C/	.	.	.	16r	6
.	.	.	.	16a/LL	.
8BB/J	.	.	.	16a/	.
.	.	.	.	16cc/JJ	.
8AA/L	.	.	.	16cc\LL	.
.	.	.	.	16ee\	.
8BB/	.	.	.	16ee\	.
.	.	.	.	16aa\JJ	.
8C#/	.	.	.	16aa\LL	6
.	.	.	.	16gg\	.
8AA/J	.	.	.	16gg\	.
.	.	.	.	16ff\JJ	.
=52	=52	=52	=52	=52	=52
8D\L	1r	1r	1r	4ff\	.
8E\	.	.	.	.	.
8F\	.	.	.	16r	6
.	.	.	.	16d/LL	.
8E\J	.	.	.	16d/	.
.	.	.	.	16f/JJ	.
8D\L	.	.	.	16f/LL	.
.	.	.	.	16a/	.
8E\	.	.	.	16a/	.
.	.	.	.	16dd/JJ	.
8F\	.	.	.	16dd/LL	6
.	.	.	.	16a/	.
8D\J	.	.	.	16a/	.
.	.	.	.	16g#/JJ	.
=53	=53	=53	=53	=53	=53
8E\L	1r	1r	1r	4g#/	#
8F#\	.	.	.	.	.
8G#\	.	.	.	16r	6
.	.	.	.	16e/LL	.
8F#\J	.	.	.	16e/	.
.	.	.	.	16g#/JJ	.
8E\L	.	.	.	16g#\LL	#
.	.	.	.	16b\	.
8F#\	.	.	.	16b\	.
.	.	.	.	16ee\JJ	.
8G#\	.	.	.	16ee\LL	6
.	.	.	.	16dd\	.
8E\J	.	.	.	16dd\	.
.	.	.	.	16cc\JJ	.
=54	=54	=54	=54	=54	=54
8A/L	1r	1r	1r	16cc\LL	.
.	.	.	.	16ee\	.
8AA/	.	.	.	16aa\	.
.	.	.	.	16cc\JJ	.
8E/	.	.	.	16b/LL	#
.	.	.	.	16a/	.
8D/J	.	.	.	16g#/	.
.	.	.	.	16b/JJ	.
8C/L	.	.	.	16a\LL	6
.	.	.	.	16ee\	.
8AA/	.	.	.	16aa\	.
.	.	.	.	16cc\JJ	.
8E/	.	.	.	16b/LL	.
.	.	.	.	16a/	.
8D/J	.	.	.	16g#/	.
.	.	.	.	16b/JJ	.
=55	=55	=55	=55	=55	=55
4AA/	4e\	4r	8r	8a\L	.
.	.	.	8aa\L	8aa\	.
8r	8r	8r	8cc\	8cc\	.
8AA/	8e\	8ccc\	8aa\J	8aa\J	.
4D\	4f\	4.bb\	8dd\L	8dd\L	6 5
.	.	.	8aa\	8aa\	.
4E\	4e\	.	8b\	8b\	#
.	.	16aa\LL	8dd\J	8dd\J	.
.	.	16gg#\JJ	.	.	.
=56	=56	=56	=56	=56	=56
4AA/	4e\	8aa\L	8cc\L	8cc\L	.
.	.	8a\J	8aa\	8aa\	.
8r	8r	8r	8cc\	8cc\	.
8AA/	8e\	8ccc\	8aa\J	8aa\J	.
4D\	4f\	4.bb\	8b\L	8b\L	6 5
.	.	.	8aa\	8aa\	.
4E\	4e\	.	8e\	8e\	#
.	.	16ccc\LL	8gg#\J	8gg#\J	.
.	.	16ddd\JJ	.	.	.
=57	=57	=57	=57	=57	=57
4AA/	4e\	8ccc\L	4aa\	4aa\	.
.	.	8aa\	.	.	.
8r	8r	8cc\	8r	8r	.
8AA/	8e\	8aa\J	8ccc\	8ccc\	.
4D\	4f\	8dd\L	4.bb\	4.bb\	6 5
.	.	8aa\	.	.	.
4E\	4e\	8b\	.	.	#
.	.	8dd\J	16aa\LL	16aa\LL	.
.	.	.	16gg#\JJ	16gg#\JJ	.
=58	=58	=58	=58	=58	=58
4AA/	4e\	8cc\L	8aa\L	8aa\L	.
.	.	8aa\	8a\J	8a\J	.
8r	8r	8cc\	8r	8r	.
8AA/	8e\	8aa\J	8ccc\	8ccc\	.
4D\	4f\	8b\L	4.bb\	4.bb\	6 5
.	.	8aa\	.	.	.
4E\	4e\	8e\	.	.	#
.	.	8gg#\J	16ccc\LL	16ccc\LL	.
.	.	.	16ddd\JJ	16ddd\JJ	.
=59	=59	=59	=59	=59	=59
4AA/	8e\L	4aa\	8ccc\L	8ccc\L	.
.	8cc\	.	8ee\	8ee\	.
4AA/	8cc\	4r	8ee\	8ee\	.
.	8cc\J	.	8ee\J	8ee\J	.
4AA/	8cc\L	2r	8ee\L	8ee\L	.
.	16b\L	.	16dd\L	16dd\L	.
.	16a\JJ	.	16cc\JJ	16cc\JJ	.
4AA/	8b\L	.	8dd\L	8dd\L	5 4
.	8b\J	.	8dd\J	8dd\J	.
=60	=60	=60	=60	=60	=60
4AA/	4a\	8r	8cc\L	8cc\L	5 3
.	.	8ee\L	8cc\	8cc\	.
4AA/	4a\	8ee\	8cc\	8cc\	.
.	.	8ee\J	8cc\J	8cc\J	.
4AA/	4a\	8ee\L	8cc\L	8cc\L	.
.	.	16dd\L	16b\L	16b\L	.
.	.	16cc\JJ	16a\JJ	16a\JJ	.
4AA/	4a\	8dd\L	8b\L	8b\L	4 2
.	.	8dd\J	8b\J	8b\J	.
=61	=61	=61	=61	=61	=61
4AA/	4a\	8cc\L	8a\L	8a\L	.
.	.	8ee\	8aa\	8aa\	.
8r	8r	8a\	8cc\	8cc\	.
8AA/	8e\	8ee\J	8aa\J	8aa\J	.
4E\	4e\	8a\L	8b\L	8b\L	5 4
.	.	8ee\	8aa\	8aa\	.
4EE/	4e\	8g#\	8b\	8b\	#
.	.	8ee\J	8gg#\J	8gg#\J	.
=62	=62	=62	=62	=62	=62
[1AA/	4e\	4cc\	4aa\	4aa\	.
.	4r	4r	4r	(16aa\LL	.
.	.	.	.	16gg\J	.
.	.	.	.	8aa\J)	.
.	2r	2r	2r	(16gg\LL	.
.	.	.	.	16ff\J	.
.	.	.	.	8gg\J)	.
.	.	.	.	(16ff\LL	.
.	.	.	.	16ee\J	.
.	.	.	.	8ff\J)	.
=63	=63	=63	=63	=63	=63
1AA/]	1r	1r	4r	(16ee\LL	.
.	.	.	.	16dd\J	.
.	.	.	.	8ee\J)	.
.	.	.	(16aa\LL	(16ff\LL	.
.	.	.	16gg\J	16ee\J	.
.	.	.	8aa\J)	8ff\J)	.
.	.	.	(16gg\LL	(16ee\LL	.
.	.	.	16ff\J	16dd\J	.
.	.	.	8gg\J)	8ee\J)	.
.	.	.	(16ff\LL	(16dd\LL	.
.	.	.	16ee\J	16cc\J	.
.	.	.	8ff\J)	8dd\J)	.
=64	=64	=64	=64	=64	=64
[1AA/	1r	1r	(16ee\LL	(16cc\LL	.
.	.	.	16dd\J	16b\J	.
.	.	.	8ee\J)	8cc\J)	.
.	.	.	(16ff\LL	(16dd\LL	.
.	.	.	16ee\J	16cc\J	.
.	.	.	8ff\J)	8dd\J)	.
.	.	.	(16ee\LL	(16cc\LL	.
.	.	.	16dd\J	16b\J	.
.	.	.	8ee\J)	8cc\J)	.
.	.	.	(16dd\LL	(16b\LL	.
.	.	.	16cc\J	16a\J	.
.	.	.	8dd\J)	8b\J)	.
=65	=65	=65	=65	=65	=65
4AA/]	2r	2r	4cc\	16a/LL	.
.	.	.	.	16a/	.
.	.	.	.	16a/	.
.	.	.	.	16cc/JJ	.
4r	.	.	4r	16cc\LL	.
.	.	.	.	16ee\	.
.	.	.	.	16ee\	.
.	.	.	.	16aa\JJ	.
8AA/L	8cc#\L	8ee\L	8aa\L	8aa\L	#
8AA/	8cc#\	8ee\	8gg\	8gg\	.
8AA/	8cc#\	8ee\	8aa\	8aa\	.
8AA/J	8cc#\J	8ee\J	8gg\J	8gg\J	.
=66	=66	=66	=66	=66	=66
4D\	4a\	4dd\	4ff\	16ff/LL	.
.	.	.	.	16d/	.
.	.	.	.	16d/	.
.	.	.	.	16f/JJ	.
4r	4r	4r	4r	16f/LL	.
.	.	.	.	16a/	.
.	.	.	.	16a/	.
.	.	.	.	16dd/JJ	.
8D\L	8f#\L	8a/L	8dd\L	8dd\L	#
8D\	8f#\	8a/	8cc\	8cc\	.
8D\	8f#\	8a/	8dd\	8dd\	.
8D\J	8f#\J	8a/J	8cc\J	8cc\J	.
=67	=67	=67	=67	=67	=67
4G\	4d\	4g/	4b\	16b/LL	.
.	.	.	.	16g/	.
.	.	.	.	16g/	.
.	.	.	.	16b/JJ	.
4r	4r	4r	4r	16b\LL	.
.	.	.	.	16dd\	.
.	.	.	.	16dd\	.
.	.	.	.	16gg\JJ	.
8GG/L	8b\L	8dd\L	8gg\L	8gg\L	.
8GG/	8b\	8dd\	8ff\	8ff\	.
8GG/	8b\	8dd\	8gg\	8gg\	.
8GG/J	8b\J	8dd\J	8ff\J	8ff\J	.
=68	=68	=68	=68	=68	=68
4C/	4g\	4cc\	4ee\	16ee/LL	.
.	.	.	.	16c/	.
.	.	.	.	16c/	.
.	.	.	.	16e/JJ	.
4r	4r	4r	4r	16e/LL	.
.	.	.	.	16g/	.
.	.	.	.	16g/	.
.	.	.	.	16cc/JJ	.
8C/L	8e\L	8g/L	8cc\L	8cc\L	.
8C/	8e\	8g/	8b-\	8b-\	.
8C/	8e\	8g/	8cc\	8cc\	.
8C/J	8e\J	8g/J	8b-\J	8b-\J	.
=69	=69	=69	=69	=69	=69
4FF/	4c\	4f/	4a/	16a/LL	.
.	.	.	.	16f/	.
.	.	.	.	16f/	.
.	.	.	.	16a/JJ	.
4r	4r	4r	4r	16a\LL	.
.	.	.	.	16cc\	.
.	.	.	.	16cc\	.
.	.	.	.	16dd\JJ	.
8D\L	8f#\L	8a/L	8dd\L	8dd\L	#
8D\	8f#\	8a/	8cc\	8cc\	.
8D\	8f#\	8a/	8dd\	8dd\	.
8D\J	8f#\J	8a/J	8cc\J	8cc\J	.
=70	=70	=70	=70	=70	=70
4G\	4d\	4g/	4b\	16b/LL	.
.	.	.	.	16g/	.
.	.	.	.	16g/	.
.	.	.	.	16b/JJ	.
4r	4r	4r	4r	16b\LL	.
.	.	.	.	16dd\	.
.	.	.	.	16dd\	.
.	.	.	.	16ee\JJ	.
*	*strophe	*	*	*	*
*	*^	*	*	*	*
*	*S/S	*S/A	*	*	*	*
8E\L	8g#\L	8g\L	8b\L	8ee\L	8ee\L	#
8E\	8g#\	8g\	8b\	8dd\	8dd\	.
*	*S/fin	*S/fin	*	*	*	*
*	*v	*v	*	*	*	*
*	*S-	*	*	*	*
8E\	8g#\	8b\	8ee\	8ee\	.
8E\J	8g#\J	8b\J	8dd\J	8dd\J	.
=71	=71	=71	=71	=71	=71
4A\	4e\	4a/	4cc\	16cc\LL	.
.	.	.	.	16a\	.
.	.	.	.	16a\	.
.	.	.	.	16cc\JJ	.
4r	4r	4r	4r	16cc\LL	.
.	.	.	.	16ee\	.
.	.	.	.	16ee\	.
.	.	.	.	16ff\JJ	.
8F\L	8a\L	8cc\L	8ff\L	8ff\L	.
8F\	8a\	8cc\	8ee\	8ee\	.
8F\	8a\	8cc\	8ff\	8ff\	.
8F\J	8a\J	8cc\J	8ee\J	8ee\J	.
=72	=72	=72	=72	=72	=72
4BB/	4d\	4b\	4dd\	16dd\LL	6
.	.	.	.	16b\	.
.	.	.	.	16b\	.
.	.	.	.	16dd\JJ	.
4r	4r	4r	4r	16dd\LL	.
.	.	.	.	16ff\	.
.	.	.	.	16ff\	.
.	.	.	.	16gg\JJ	.
8G\L	8b\L	8dd\L	8gg\L	8gg\L	.
8G\	8b\	8dd\	8ff\	8ff\	.
8G\	8b\	8dd\	8gg\	8gg\	.
8G\J	8b\J	8dd\J	8ff\J	8ff\J	.
=73	=73	=73	=73	=73	=73
8C/L	4.g\	8cc\L	8ee\L	8ee\L	.
16C/L	.	16cc\L	8ccc\	8ccc\	.
16BB/JJ	.	16dd\JJ	.	.	.
8C/L	.	8ee\L	8gg\	8gg\	.
8C/J	8e\	[8gg\J	8ccc\J	8ccc\J	.
4C/	4e\	8gg\]	8ee\L	8ee\L	.
.	.	4ee\	8ccc\	8ccc\	.
8r	4g\	.	8cc\	8cc\	.
8C/	.	16dd\LL	8ee\J	8ee\J	.
.	.	16cc\JJ	.	.	.
=74	=74	=74	=74	=74	=74
8GG\L	4.g\	8b\L	8dd\L	8dd\L	.
16G\L	.	8gg\	16g\L	16g\L	.
16F\JJ	.	.	16a\JJ	16a\JJ	.
8G\L	.	8dd\	8b\L	8b\L	.
8G\J	8g\	8gg\J	[8dd\J	[8dd\J	.
4G\	4g\	8b\L	8dd\]	8dd\]	.
.	.	8gg\	4b\	4b\	.
8r	4g\	8g\	.	.	.
8G\	.	8gg\J	16cc\LL	16cc\LL	.
.	.	.	16dd\JJ	16dd\JJ	.
=75	=75	=75	=75	=75	=75
8C/L	4.g\	8ee\L	8ee\L	8ee\L	.
16C/L	.	16cc\L	8ccc\	8ccc\	.
16BB/JJ	.	16dd\JJ	.	.	.
8C/L	.	8ee\L	8gg\	8gg\	.
8C/J	8e\	[8gg\J	8ccc\J	8ccc\J	.
4C/	4e\	8gg\]	8ee\L	8ee\L	.
.	.	4ee\	8ccc\	8ccc\	.
8r	4g\	.	8cc\	8cc\	.
8C/	.	16dd\LL	8ee\J	8ee\J	.
.	.	16cc\JJ	.	.	.
=76	=76	=76	=76	=76	=76
8GG\L	4.g\	8b\L	8dd\L	8dd\L	.
16G\L	.	8gg\	16g\L	16g\L	.
16F\JJ	.	.	16a\JJ	16a\JJ	.
8G\L	.	8dd\	8b\L	8b\L	.
8G\J	8g\	8gg\J	[8dd\J	[8dd\J	.
4G\	4g\	8b\L	8dd\]	8dd\]	.
.	.	8gg\	4b\	4b\	.
8r	4g\	8g\	.	.	.
8G\	.	8gg\J	16cc\LL	16cc\LL	.
.	.	.	16dd\JJ	16dd\JJ	.
=77	=77	=77	=77	=77	=77
4C/	8g\L	8ee/L	8ee/L	16ee\LL	.
.	.	.	.	16cc\	.
.	8g\	8g/	8g/	16b\	.
.	.	.	.	16cc\JJ	.
4r	8e\	8e/	8e/	16g\LL	.
.	.	.	.	16cc\	.
.	8g\J	8g/J	8g/J	16b\	.
.	.	.	.	16cc\JJ	.
2r	8c\L	8c/L	8c/L	16e/LL	.
.	.	.	.	16cc/	.
.	8g\	8g/	8g/	16b/	.
.	.	.	.	16cc/JJ	.
.	8e\	8e/	8e/	16g\LL	.
.	.	.	.	16cc\	.
.	8g\J	8g/J	8g/J	16b\	.
.	.	.	.	16cc\JJ	.
=78	=78	=78	=78	=78	=78
1r	8f\L	8f/L	8f/L	16a\LL	.
.	.	.	.	16dd\	.
.	8a\	8a/	8a/	16cc\	.
.	.	.	.	16dd\JJ	.
.	8f\	8f/	8f/	16a\LL	.
.	.	.	.	16dd\	.
.	8a\J	8a/J	8a/J	16cc\	.
.	.	.	.	16dd\JJ	.
.	8d\L	8d/L	8d/L	16f#\LL	.
.	.	.	.	16dd\	.
.	8a\	8a/	8a/	16cc\	.
.	.	.	.	16dd\JJ	.
.	8f#\	8f#/	8f#/	16a\LL	.
.	.	.	.	16dd\	.
.	8a\J	8a/J	8a/J	16cc\	.
.	.	.	.	16dd\JJ	.
=79	=79	=79	=79	=79	=79
1r	8g\L	8g/L	8g/L	16b\LL	.
.	.	.	.	16ee\	.
.	8b\	8b/	8b/	16dd\	.
.	.	.	.	16ee\JJ	.
.	8g\	8g/	8g/	16b\LL	.
.	.	.	.	16ee\	.
.	8b\J	8b/J	8b/J	16dd\	.
.	.	.	.	16ee\JJ	.
.	8e\L	8e/L	8e/L	16g#\LL	.
.	.	.	.	16ee\	.
.	8b\	8b/	8b/	16dd\	.
.	.	.	.	16ee\JJ	.
.	8g#\	8g#/	8g#/	16b\LL	.
.	.	.	.	16ee\	.
.	8b\J	8b/J	8b/J	16dd\	.
.	.	.	.	16ee\JJ	.
=80	=80	=80	=80	=80	=80
1r	8a\L	8a/L	8a/L	16cc\LL	.
.	.	.	.	16ff\	.
.	8cc\	8cc/	8cc/	16ee\	.
.	.	.	.	16ff\JJ	.
.	8a\	8a/	8a/	16cc\LL	.
.	.	.	.	16ff\	.
.	8cc\J	8cc/J	8cc/J	16ee\	.
.	.	.	.	16ff\JJ	.
.	8f\L	8f/L	8f/L	16a\LL	.
.	.	.	.	16ff\	.
.	8cc\	8cc/	8cc/	16ee\	.
.	.	.	.	16ff\JJ	.
.	8a\	8a/	8a/	16cc\LL	.
.	.	.	.	16ff\	.
.	8cc\J	8cc/J	8cc/J	16ee\	.
.	.	.	.	16ff\JJ	.
=81	=81	=81	=81	=81	=81
1r	4g\	4g/	4g/	8b/L	.
.	.	.	.	16g/L	.
.	.	.	.	16a/JJ	.
.	8r	8r	8r	8b\L	.
.	16g\LL	16g/LL	16g/LL	[8b\J	.
.	16f#\JJ	16f#/JJ	16f#/JJ	.	.
.	8g\L	8g/L	8g/L	8b\L]	.
.	8G\J	8G/J	8G/J	16b\L	.
.	.	.	.	16cc\JJ	.
.	8r	8r	8r	8dd\L	.
.	16g\LL	16g/LL	16g/LL	[8dd\J	.
.	16f#\JJ	16f#/JJ	16f#/JJ	.	.
=82	=82	=82	=82	=82	=82
1r	8g\L	8g/L	8g/L	8dd\L]	.
.	8G\J	8G/J	8G/J	16dd\L	.
.	.	.	.	16ee\JJ	.
.	8r	8r	8r	8ff\L	.
.	8g\	8g/	8g/	8ff\J	.
.	8cc\L	8cc/L	8cc/L	8ee\L	.
.	8c\J	8c/J	8c/J	(16cc\L	.
.	.	.	.	16dd\JJ)	.
.	8r	8r	8r	8ee\L	.
.	8c\	8c/	8c/	(16ee\L	.
.	.	.	.	16ff\JJ)	.
=83	=83	=83	=83	=83	=83
1r	8cc\L	8cc/L	8cc/L	8gg\L	.
.	8c\J	8c/J	8c/J	(16cc\L	.
.	.	.	.	16dd\JJ)	.
.	8r	8r	8r	8ee\L	.
.	8c\	8c/	8c/	(16ee\L	.
.	.	.	.	16ff\JJ)	.
.	8cc\L	8cc/L	8cc/L	8gg\L	.
.	8c\J	8c/J	8c/J	(16ee\L	.
.	.	.	.	16ff\JJ)	.
.	8r	8r	8r	8gg\L	.
.	8g\	8g/	8g/	(16aa\L	.
.	.	.	.	16bb\JJ)	.
=84	=84	=84	=84	=84	=84
2r	8e\L	8e/L	8e/L	8ccc\L	.
.	8c\	8c/	8c/	8cc\J	.
.	8g\	8g/	8g/	4ddT\	.
.	8G\J	8G/J	8G/J	.	.
8E\L	8c\L	16c\LL	16c\LL	16cc\LL	6
.	.	16ee\	16ee\	16ee\	.
8E\	8g\	16dd\	16dd\	16dd\	.
.	.	16ee\JJ	16ee\JJ	16ee\JJ	.
8E\	8g\	16cc\LL	16cc\LL	16cc\LL	.
.	.	16ee\	16ee\	16ee\	.
8E\J	8g\J	16dd\	16dd\	16dd\	.
.	.	16ee\JJ	16ee\JJ	16ee\JJ	.
=85	=85	=85	=85	=85	=85
8E\L	8g\L	16g\LL	16g\LL	16g\LL	6
.	.	16ee\	16ee\	16ee\	.
8E\	8g\	16dd\	16dd\	16dd\	.
.	.	16ee\JJ	16ee\JJ	16ee\JJ	.
8E\	8g\	16cc\LL	16cc\LL	16cc\LL	.
.	.	16ee\	16ee\	16ee\	.
8E\J	8g\J	16dd\	16dd\	16dd\	.
.	.	16ee\JJ	16ee\JJ	16ee\JJ	.
8F\L	8a\L	16a\LL	16a\LL	16a\LL	.
.	.	16ff\	16ff\	16ff\	.
8F\	8a\	16ee\	16ee\	16ee\	.
.	.	16ff\JJ	16ff\JJ	16ff\JJ	.
8F\	8a\	16cc\LL	16cc\LL	16cc\LL	.
.	.	16ff\	16ff\	16ff\	.
8F\J	8a\J	16ee\	16ee\	16ee\	.
.	.	16ff\JJ	16ff\JJ	16ff\JJ	.
=86	=86	=86	=86	=86	=86
8F\L	8a\L	16a\LL	16a\LL	16a\LL	.
.	.	16ff\	16ff\	16ff\	.
8F\	8a\	16ee\	16ee\	16ee\	.
.	.	16ff\JJ	16ff\JJ	16ff\JJ	.
8F\	8a\	16cc\LL	16cc\LL	16cc\LL	.
.	.	16ff\	16ff\	16ff\	.
8F\J	8a\J	16ee\	16ee\	16ee\	.
.	.	16ff\JJ	16ff\JJ	16ff\JJ	.
8F#\L	8a\L	16a\LL	16a\LL	16a\LL	6
.	.	16ff#\	16ff#\	16ff#\	.
8F#\	8a\	16ee\	16ee\	16ee\	.
.	.	16ff#\JJ	16ff#\JJ	16ff#\JJ	.
8F#\	8a\	16dd\LL	16dd\LL	16dd\LL	.
.	.	16ff#\	16ff#\	16ff#\	.
8F#\J	8a\J	16ee\	16ee\	16ee\	.
.	.	16ff#\JJ	16ff#\JJ	16ff#\JJ	.
=87	=87	=87	=87	=87	=87
8F#\L	8a\L	16a\LL	16a\LL	16a\LL	.
.	.	16ff#\	16ff#\	16ff#\	.
8F#\	8a\	16ee\	16ee\	16ee\	.
.	.	16ff#\JJ	16ff#\JJ	16ff#\JJ	.
8F#\	8a\	16dd\LL	16dd\LL	16dd\LL	.
.	.	16ff#\	16ff#\	16ff#\	.
8F#\J	8a\J	16ee\	16ee\	16ee\	.
.	.	16ff#\JJ	16ff#\JJ	16ff#\JJ	.
8G\L	8b\L	16b\LL	16b\LL	16b\LL	.
.	.	16gg\	16gg\	16gg\	.
8G\	8b\	16ff#\	16ff#\	16ff#\	.
.	.	16gg\JJ	16gg\JJ	16gg\JJ	.
8G\	8b\	16dd\LL	16dd\LL	16dd\LL	.
.	.	16gg\	16gg\	16gg\	.
8G\J	8b\J	16ff#\	16ff#\	16ff#\	.
.	.	16gg\JJ	16gg\JJ	16gg\JJ	.
=88	=88	=88	=88	=88	=88
8G\L	8b\L	16b\LL	16b\LL	16b\LL	.
.	.	16gg\	16gg\	16gg\	.
8G\	8b\	16ff#\	16ff#\	16ff#\	.
.	.	16gg\JJ	16gg\JJ	16gg\JJ	.
8G\	8b\	16dd\LL	16dd\LL	16dd\LL	.
.	.	16gg\	16gg\	16gg\	.
8G\J	8b\J	16ff#\	16ff#\	16ff#\	.
.	.	16gg\JJ	16gg\JJ	16gg\JJ	.
8G#\L	8b\L	16b\LL	16b\LL	16b\LL	6
.	.	16gg#\	16gg#\	16gg#\	.
8G#\	8b\	16ff#\	16ff#\	16ff#\	.
.	.	16gg#\JJ	16gg#\JJ	16gg#\JJ	.
8G#\	8b\	16ee\LL	16ee\LL	16ee\LL	.
.	.	16gg#\	16gg#\	16gg#\	.
8G#\J	8b\J	16ff#\	16ff#\	16ff#\	.
.	.	16gg#\JJ	16gg#\JJ	16gg#\JJ	.
=89	=89	=89	=89	=89	=89
8G#\L	8b\L	16b\LL	16b\LL	16b\LL	.
.	.	16gg#\	16gg#\	16gg#\	.
8G#\	8b\	16ff#\	16ff#\	16ff#\	.
.	.	16gg#\JJ	16gg#\JJ	16gg#\JJ	.
8G#\	8b\	16ee\LL	16ee\LL	16ee\LL	.
.	.	16gg#\	16gg#\	16gg#\	.
8G#\J	8b\J	16ff#\	16ff#\	16ff#\	.
.	.	16gg#\JJ	16gg#\JJ	16gg#\JJ	.
*>S88	*>S88	*>S88	*>S88	*>S88	*>S88
!! Selfridge-Field edition.
8A\L	8cc\L	16cc\LL	16cc\LL	16cc\LL	.
.	.	16aa\	16aa\	16aa\	.
8A\	8cc\	16ggn\	16ggn\	16ggn\	.
.	.	16aa\JJ	16aa\JJ	16aa\JJ	.
8A\	8cc\	16ee\LL	16ee\LL	16ee\LL	.
.	.	16aa\	16aa\	16aa\	.
8A\J	8cc\J	16gg\	16gg\	16gg\	.
.	.	16aa\JJ	16aa\JJ	16aa\JJ	.
*>A88	*>A88	*>A88	*>A88	*>A88	*>A88
!! Amsterdam print.
8A\L	8cc\L	16cc\LL	16cc\LL	16cc\LL	.
.	.	16aa\	16aa\	16aa\	.
8A\	8cc\	16gg#\	16gg#\	16gg#\	.
.	.	16aa\JJ	16aa\JJ	16aa\JJ	.
8A\	8cc\	16ee\LL	16ee\LL	16ee\LL	.
.	.	16aa\	16aa\	16aa\	.
8A\J	8cc\J	16ggn\	16ggn\	16ggn\	.
.	.	16aa\JJ	16aa\JJ	16aa\JJ	.
*>etc2	*>etc2	*>etc2	*>etc2	*>etc2	*>etc2
=90	=90	=90	=90	=90	=90
8A\L	8cc\L	16cc\LL	16cc\LL	16cc\LL	.
.	.	16aa\	16aa\	16aa\	.
8A\	8cc\	16gg\	16gg\	16gg\	.
.	.	16aa\JJ	16aa\JJ	16aa\JJ	.
8A\	8cc\	16ee\LL	16ee\LL	16ee\LL	.
.	.	16aa\	16aa\	16aa\	.
8A\J	8cc\J	16gg\	16gg\	16gg\	.
.	.	16aa\JJ	16aa\JJ	16aa\JJ	.
8A\L	8cc\L	16cc\LL	16cc\LL	16cc\LL	6
.	.	16aa\	16aa\	16aa\	.
8A\	8cc\	16gg\	16gg\	16gg\	.
.	.	16aa\JJ	16aa\JJ	16aa\JJ	.
8A\	8cc\	16ff\LL	16ff\LL	16ff\LL	.
.	.	16aa\	16aa\	16aa\	.
8A\J	8cc\J	16gg\	16gg\	16gg\	.
.	.	16aa\JJ	16aa\JJ	16aa\JJ	.
=91	=91	=91	=91	=91	=91
8A\L	8cc\L	16cc\LL	16cc\LL	16cc\LL	6
.	.	16aa\	16aa\	16aa\	.
8A\	8cc\	16gg\	16gg\	16gg\	.
.	.	16aa\JJ	16aa\JJ	16aa\JJ	.
8A\	8cc\	16ff\LL	16ff\LL	16ff\LL	.
.	.	16aa\	16aa\	16aa\	.
8A\J	8cc\J	16gg\	16gg\	16gg\	.
.	.	16aa\JJ	16aa\JJ	16aa\JJ	.
8G\L	8dd\L	8b\L	8b\L	8b\L	.
8G\	8dd\	16b\L	16b\L	16b\L	.
.	.	16cc\JJ	16cc\JJ	16cc\JJ	.
8G\	8dd\	16dd\LL	16dd\LL	16dd\LL	.
.	.	16ee\	16ee\	16ee\	.
8G\J	8dd\J	16ff\	16ff\	16ff\	.
.	.	16ee\JJ	16ee\JJ	16ee\JJ	.
=92	=92	=92	=92	=92	=92
8G\L	8b\L	8dd\L	8dd\L	8dd\L	.
8G\	8b\	16b\L	16b\L	16b\L	.
.	.	16cc\JJ	16cc\JJ	16cc\JJ	.
8G\	8b\	16dd\LL	16dd\LL	16dd\LL	.
.	.	16ee\	16ee\	16ee\	.
8G\J	8b\J	16ff\	16ff\	16ff\	.
.	.	16ee\JJ	16ee\JJ	16ee\JJ	.
8G\L	8b\L	8dd\L	8dd\L	8dd\L	.
8G\	8b\	16dd\L	16dd\L	16dd\L	.
.	.	16ee\JJ	16ee\JJ	16ee\JJ	.
8G\	8b\	16ff\LL	16ff\LL	16ff\LL	.
.	.	16gg\	16gg\	16gg\	.
8G\J	8b\J	16aa\	16aa\	16aa\	.
.	.	16gg\JJ	16gg\JJ	16gg\JJ	.
=93	=93	=93	=93	=93	=93
8G\L	8b\L	8ff\L	8ff\L	8ff\L	.
8G\	8b\	16dd\L	16dd\L	16dd\L	.
.	.	16ee\JJ	16ee\JJ	16ee\JJ	.
8G\	8b\	16ff\LL	16ff\LL	16ff\LL	.
.	.	16gg\	16gg\	16gg\	.
8G\J	8b\J	16aa\	16aa\	16aa\	.
.	.	16ff\JJ	16ff\JJ	16ff\JJ	.
8C/L	8g\L	16ee\LL	16ee\LL	16ee\LL	.
.	.	16ccc\	16ccc\	16ccc\	.
8C/	8g\	16bb\	16bb\	16bb\	.
.	.	16ccc\JJ	16ccc\JJ	16ccc\JJ	.
8C/	8g\	16ee\LL	16ee\LL	16ee\LL	.
.	.	16ccc\	16ccc\	16ccc\	.
8C/J	8g\J	16bb\	16bb\	16bb\	.
.	.	16ccc\JJ	16ccc\JJ	16ccc\JJ	.
=94	=94	=94	=94	=94	=94
8G/L	8g\L	16dd\LL	16dd\LL	16dd\LL	5 4
.	.	16ccc\	16ccc\	16ccc\	.
8G/	8g\	16bb\	16bb\	16bb\	.
.	.	16ccc\JJ	16ccc\JJ	16ccc\JJ	.
8GG/	8g\	16dd\LL	16dd\LL	16dd\LL	3
.	.	16bb\	16bb\	16bb\	.
8GG/J	8g\J	16aa\	16aa\	16aa\	.
.	.	16bb\JJ	16bb\JJ	16bb\JJ	.
8C/L	8g/L	16ccc\LL	16ccc\LL	16ccc\LL	.
.	.	16cc\	16cc\	16cc\	.
8C/	8G/	16b\	16b\	16b\	.
.	.	16cc\JJ	16cc\JJ	16cc\JJ	.
8C/	8G/	16e/LL	16e/LL	16e/LL	.
.	.	16cc/	16cc/	16cc/	.
8C/J	8G/J	16b/	16b/	16b/	.
.	.	16cc/JJ	16cc/JJ	16cc/JJ	.
=95	=95	=95	=95	=95	=95
8G/L	8G/L	16d/LL	16d/LL	16d/LL	5 4
.	.	16cc/	16cc/	16cc/	.
8G/	8G/	16b/	16b/	16b/	.
.	.	16cc/JJ	16cc/JJ	16cc/JJ	.
8GG/	8G/	16d/LL	16d/LL	16d/LL	3
.	.	16b/	16b/	16b/	.
8GG/J	8g/J	16a/	16a/	16a/	.
.	.	16b/JJ	16b/JJ	16b/JJ	.
2C/	2e\	2cc\	2cc\	2cc\	.
==|!	==|!	==|!	==|!	==|!	==|!
*-	*-	*-	*-	*-	*-
!!!CDT: 1678/3/4/-1741/7/28
!!!OCY: Italia
!!!ODE: Count Wenzeslaus von Morzin of Bohemia; Count Wenceslas of Morzin
!!!ODT: 1725///
!!!OPC: Venezia; Venice
!!!AGN: concerto
!!!AST: baroque
!!!AMT: simple quadruple
!!!PPR: Michel-Charles Le Ce`ne
!!!PC#: Le Cene No. 521
!!!PDT: 1725///
!!!PPP: Amsterdam
!!!SCT: RV 178
!!!SMA1: The cooperation of the following libraries is gratefully acknowledged:
!!!SMA2: Saechsische Landesbibliothek, Dresden; Biblioteca Nazionale
!!!SMA3: Universitaria, Turin; Henry Watson Music Library, Manchester.
!!!YOR: New York: Dover Publications, Inc. 1995
!!!AIN: cello cemba viola violn
!!!EEV: 1.0
!!!RDT: 1994/5/16/
!!!YER: 1996/10/31/
!!!YEP: Center for Computer Assisted Research in the Humanities
!!!YEN: United States of America
!!!EFL: 3/3
!!!ENC: Edmund Correia, Jr.
!!!EED: Eleanor Selfridge-Field
